X: 112
T:Splendid Shilling, The
C: ca. 1790
M:6/8
L:1/8
Z: alf.warnock@gmail.com
K:G
%%text 3 times
D |: "G"G3 BGB | "D"c2A F2D | "G"G3 BGB |
d2B GAB |"C"c2e A2c | "G"B2d G2B |
[1 "Am"A2B c2B | "C"ABG "D"FED :| [2 "C"AcB "D"AGF | "G"G3 G2d ||
"G"g3 dcB | "C"cBc "D"dfa | "G"g3 dBd | "Am"ecA "D"A2d |
"Em"g2a bag | "D"f2g afd | "A"egf ed^c | "D"d3 dcB |
"C"c2d edc | "G"B2c dcB | "Am"A2B c2B | "C"ABG "D"FED ||
"G"G3 BGB | "D"c2A F2D | "G"G3 BGB | d2B GAB |
"C"c2e "D"A2c | "G"B2d G2B | "C"AcB "D"AGF | "G"G3 G2 |]

